X:49
%%etbk:tnset id:17,pos:1,rep:3
%%etbk:site1 http://www.thesession.org/tunes/display/558
T: Cottage In The Glen, The
Z: Piano Box Version by Martin Fleischmann (www.boxplayer.ch)
M: 4/4
L: 1/8
R: reel
K: Edor
!1!B,2!2!EE !1!D!2!E!3!F!4!A | !2!B2 !5!e!3!c !4!d!2!B!1!A!3!F | !1!DEFD !2!EE!1!D!2!B, | !1!A,!2!B,!1!D!3!F !2!E!1!D!2!B,!1!A, | 
!2!B,!5!E!2!EE  !1!DEF!4!A | !2!B2 !5!ee !4!dB!1!A!3!F | !1!DEF!4!A !4!ABA!3!F | !2!EGFD !2!E4 :|
|: !2!B2!4!ee !5!f!4!e!3!d!2!B | !4!e2fe !3!d!2!B!1!A!2!F | !1!A3 !2!B !3!d2 !5!fd | !4!edef !3!dd!2!B!1!A | 
!2!B2!4!ee !5!fed!2!B | !4!e2fe !3!d!2!B!1!A!3!F | !1!DEF!4!A ABA!3!F | !2!EGFD !2!E4 :|


